public/assets/icons/social/insta.svg

<svg width="36" height="35" viewBox="0 0 36 35" fill="none" xmlns="http://www.w3.org/2000/svg">
<g opacity="0.8">
<g clip-path="url(#clip0_2620_235)">
<path d="M20.1177 17.5C20.1177 18.6562 19.1804 19.5935 18.0242 19.5935C16.8679 19.5935 15.9307 18.6562 15.9307 17.5C15.9307 16.3438 16.8679 15.4065 18.0242 15.4065C19.1804 15.4065 20.1177 16.3438 20.1177 17.5Z" fill="#020F59"/>
<path d="M18.0244 6.5625C11.9847 6.5625 7.08691 11.4603 7.08691 17.5C7.08691 23.5397 11.9847 28.4375 18.0244 28.4375C24.0641 28.4375 28.9619 23.5397 28.9619 17.5C28.9619 11.4603 24.0641 6.5625 18.0244 6.5625ZM24.267 20.0893C24.2367 20.7579 24.1304 21.2144 23.9752 21.6139C23.6489 22.4576 22.982 23.1245 22.1383 23.4507C21.739 23.6059 21.2823 23.7121 20.6139 23.7426C19.9442 23.7732 19.7302 23.7805 18.0246 23.7805C16.3188 23.7805 16.105 23.7732 15.4351 23.7426C14.7667 23.7121 14.31 23.6059 13.9107 23.4507C13.4914 23.293 13.1119 23.0459 12.7982 22.7263C12.4787 22.4127 12.2316 22.033 12.0738 21.6139C11.9186 21.2145 11.8123 20.7579 11.7819 20.0895C11.7511 19.4196 11.7439 19.2056 11.7439 17.5C11.7439 15.7944 11.7511 15.5804 11.7818 14.9107C11.8122 14.2421 11.9183 13.7856 12.0735 13.3861C12.2312 12.967 12.4786 12.5873 12.7982 12.2737C13.1118 11.9541 13.4914 11.707 13.9105 11.5493C14.31 11.3941 14.7665 11.2879 15.4351 11.2574C16.1048 11.2268 16.3188 11.2195 18.0244 11.2195C19.7301 11.2195 19.944 11.2268 20.6138 11.2575C21.2823 11.2879 21.7388 11.3941 22.1383 11.5491C22.5574 11.7068 22.9371 11.9541 23.2508 12.2737C23.5703 12.5875 23.8176 12.967 23.9752 13.3861C24.1305 13.7856 24.2367 14.2421 24.2672 14.9107C24.2978 15.5804 24.3049 15.7944 24.3049 17.5C24.3049 19.2056 24.2978 19.4196 24.267 20.0893Z" fill="#020F59"/>
<ellipse cx="21.0322" cy="13.9453" rx="0.820312" ry="0.820312" fill="#020F59"/>
</g>
</g>
<defs>
<clipPath id="clip0_2620_235">
<rect width="21.875" height="21.875" fill="white" transform="translate(7.08691 6.5625)"/>
</clipPath>
</defs>
</svg>

<svg xmlns="http://www.w3.org/2000/svg" width="36" height="35" fill="none"><g fill="#020F59" clip-path="url(#a)" opacity=".8"><path d="M20.118 17.5a2.094 2.094 0 1 1-4.187 0 2.094 2.094 0 0 1 4.187 0Z"/><path d="M18.024 6.563c-6.04 0-10.937 4.897-10.937 10.937 0 6.04 4.898 10.938 10.937 10.938 6.04 0 10.938-4.898 10.938-10.938 0-6.04-4.898-10.938-10.938-10.938Zm6.243 13.526c-.03.669-.137 1.125-.292 1.525a3.211 3.211 0 0 1-1.837 1.837c-.399.155-.856.261-1.524.292-.67.03-.884.038-2.59.038-1.705 0-1.919-.008-2.589-.038-.668-.03-1.125-.137-1.524-.292a3.075 3.075 0 0 1-1.113-.725 3.079 3.079 0 0 1-.724-1.112c-.155-.4-.262-.856-.292-1.524-.03-.67-.038-.884-.038-2.59s.007-1.92.038-2.59c.03-.668.136-1.124.291-1.524.158-.419.406-.799.725-1.112.314-.32.693-.567 1.113-.725.399-.155.856-.261 1.524-.292.67-.03.884-.037 2.59-.037 1.705 0 1.919.007 2.589.037.668.03 1.125.137 1.524.292.42.158.8.405 1.113.725.32.314.567.693.724 1.112.155.4.262.856.292 1.525.03.67.038.883.038 2.589s-.007 1.92-.038 2.59Z"/><circle cx="21.032" cy="13.945" r=".82"/></g><defs><clipPath id="a"><path fill="#fff" d="M7.087 6.563h21.875v21.875H7.087z"/></clipPath></defs></svg>
